configs/network-icons/blast-light.svg

<svg width="30" height="30" viewBox="0 0 30 30" fill="none" xmlns="http://www.w3.org/2000/svg">
<path fill-rule="evenodd" clip-rule="evenodd" d="M28.3692 12.3789L23.6383 14.7363L23.606 14.8009L26.8192 17.1582L25.1077 22.4543L20.3121 24.8278L23.1862 15.9957H12.9494L13.9344 12.9279H24.1711L25.5274 8.72982H0L5.02152 5H26.7385L30 7.37351L28.3692 12.3789ZM10.1718 11.8299L7.217 21.0333H21.5388L20.3117 24.8277H1.96943L6.89407 9.3756L10.1718 11.8299Z" fill="#0E0E0B"/>
</svg>

<svg xmlns="http://www.w3.org/2000/svg" fill="none" viewBox="0 0 30 30">
  <path fill="#0E0E0B" fill-rule="evenodd" d="m28.37 12.379-4.732 2.357-.032.065 3.213 2.357-1.711 5.296-4.796 2.374 2.874-8.832H12.95l.985-3.068h10.237l1.356-4.198H0L5.022 5h21.716L30 7.374l-1.63 5.005Zm-18.198-.55-2.955 9.204h14.322l-1.227 3.795H1.969L6.894 9.376l3.278 2.454Z" clip-rule="evenodd"/>
</svg>
